X: 36589
T: Shakin' O' The Pocky
R: strathspey
M: 4/4
K: Gminor
D2 C2 B,3D|F3G FD2B,|z3A B2 BA|GA Bc d4|z4 e3c|d3B c3A|B2 G2 F3D|B3D E2 D2|
C2 DC B,3D|F3G F2 D2|B,3A B2 B2|GA Bc d4|z4 e3c|d3B c3A|B2 G2 F2 ED|
E2 C2 B,4|z4 b3f|d3B g2 e2|c2 a2 b2 g2|e2 c2 f4|z2 ga b3f|d3B g2 e2|
c2 B2 "
4"[A2A2] "
4"[AA]B|cf2A B4|z2 f/g/a b3f|d3B g2 e2|c2 a2 b2 g2|
e2 c2 f4|z2 e2 d3B|e3c dc BA|B4 z2 G2|F4 zF ED|FE3 zE DC|B,4 z4|

